Sources/FrostedUI/Resources/Icons.xcassets/list32.imageset/list-32.svg

<svg width="32" height="32" viewBox="0 0 32 32" fill="none" xmlns="http://www.w3.org/2000/svg" data-fui-icon="true">
  <path
    d="M26.1797 2C28.5656 2 30.5 3.93444 30.5 6.32031V25.6797C30.5 28.0656 28.5656 30 26.1797 30H6.82031C4.43444 30 2.5 28.0656 2.5 25.6797V6.32031C2.5 3.93444 4.43444 2 6.82031 2H26.1797ZM6.82031 3.5C5.26287 3.5 4 4.76287 4 6.32031V25.6797C4 27.2371 5.26287 28.5 6.82031 28.5H26.1797C27.7371 28.5 29 27.2371 29 25.6797V6.32031C29 4.76287 27.7371 3.5 26.1797 3.5H6.82031ZM9.05957 20.0596C10.1641 20.0596 11.0596 20.955 11.0596 22.0596C11.0594 23.164 10.164 24.0595 9.05957 24.0596C7.95508 24.0596 7.0597 23.164 7.05957 22.0596C7.05957 20.955 7.955 20.0596 9.05957 20.0596ZM19.25 21.3096C19.6642 21.3096 20 21.6454 20 22.0596C19.9999 22.4737 19.6641 22.8096 19.25 22.8096H13.75C13.3359 22.8096 13.0001 22.4737 13 22.0596C13 21.6454 13.3358 21.3096 13.75 21.3096H19.25ZM9.05957 21.5596C8.78343 21.5596 8.55957 21.7834 8.55957 22.0596C8.5597 22.3356 8.78351 22.5596 9.05957 22.5596C9.33558 22.5595 9.55944 22.3356 9.55957 22.0596C9.55957 21.7835 9.33566 21.5596 9.05957 21.5596ZM9.05957 14.0596C10.1641 14.0596 11.0596 14.955 11.0596 16.0596C11.0594 17.164 10.164 18.0595 9.05957 18.0596C7.95508 18.0596 7.0597 17.164 7.05957 16.0596C7.05957 14.955 7.955 14.0596 9.05957 14.0596ZM22.25 15.3096C22.6642 15.3096 23 15.6454 23 16.0596C22.9999 16.4737 22.6641 16.8096 22.25 16.8096H13.75C13.3359 16.8096 13.0001 16.4737 13 16.0596C13 15.6454 13.3358 15.3096 13.75 15.3096H22.25ZM9.05957 15.5596C8.78343 15.5596 8.55957 15.7834 8.55957 16.0596C8.5597 16.3356 8.78351 16.5596 9.05957 16.5596C9.33558 16.5595 9.55944 16.3356 9.55957 16.0596C9.55957 15.7835 9.33566 15.5596 9.05957 15.5596ZM9.05957 8.05957C10.1641 8.05964 11.0596 8.95504 11.0596 10.0596C11.0594 11.164 10.164 12.0595 9.05957 12.0596C7.95508 12.0596 7.0597 11.164 7.05957 10.0596C7.05957 8.955 7.955 8.05957 9.05957 8.05957ZM25.25 9.30957C25.6642 9.30957 26 9.64536 26 10.0596C25.9999 10.4737 25.6641 10.8096 25.25 10.8096H13.75C13.3359 10.8096 13.0001 10.4737 13 10.0596C13 9.64536 13.3358 9.30957 13.75 9.30957H25.25ZM9.05957 9.55957C8.78343 9.55957 8.55957 9.78343 8.55957 10.0596C8.5597 10.3356 8.78351 10.5596 9.05957 10.5596C9.33558 10.5595 9.55944 10.3356 9.55957 10.0596C9.55957 9.78347 9.33566 9.55964 9.05957 9.55957Z"
    fill="currentColor"
  />
</svg>

<svg xmlns="http://www.w3.org/2000/svg" width="32" height="32" fill="none" data-fui-icon="true" viewBox="0 0 32 32"><path fill="currentColor" d="M26.18 2a4.32 4.32 0 0 1 4.32 4.32v19.36A4.32 4.32 0 0 1 26.18 30H6.82a4.32 4.32 0 0 1-4.32-4.32V6.32A4.32 4.32 0 0 1 6.82 2zM6.82 3.5A2.82 2.82 0 0 0 4 6.32v19.36a2.82 2.82 0 0 0 2.82 2.82h19.36A2.82 2.82 0 0 0 29 25.68V6.32a2.82 2.82 0 0 0-2.82-2.82zm2.24 16.56a2 2 0 1 1 0 4 2 2 0 0 1 0-4m10.19 1.25a.75.75 0 0 1 0 1.5h-5.5a.75.75 0 0 1 0-1.5zm-10.19.25a.5.5 0 1 0 0 1 .5.5 0 0 0 0-1m0-7.5a2 2 0 1 1 0 4 2 2 0 0 1 0-4m13.19 1.25a.75.75 0 0 1 0 1.5h-8.5a.75.75 0 0 1 0-1.5zm-13.19.25a.5.5 0 1 0 0 1 .5.5 0 0 0 0-1m0-7.5a2 2 0 1 1 0 4 2 2 0 0 1 0-4m16.19 1.25a.75.75 0 0 1 0 1.5h-11.5a.75.75 0 0 1 0-1.5zm-16.19.25a.5.5 0 1 0 0 1 .5.5 0 0 0 0-1"/></svg>
